Obsidian/apps/96/ms-powerpoint.svg

<svg height="96" width="96" xmlns="http://www.w3.org/2000/svg" xmlns:xlink="http://www.w3.org/1999/xlink"><linearGradient id="a"><stop offset="0" stop-color="#fffac8"/><stop offset="1" stop-color="#feff67" stop-opacity="0"/></linearGradient><linearGradient id="b" gradientUnits="userSpaceOnUse" x1="36.357143" x2="36.357143" xlink:href="#a" y1="6" y2="63.893143"/><filter id="c" color-interpolation-filters="sRGB" height="1.384" width="1.384" x="-.192" y="-.192"><feGaussianBlur stdDeviation="5.28"/></filter><linearGradient id="d" gradientUnits="userSpaceOnUse" x1="48" x2="48" xlink:href="#a" y1="20.220806" y2="138.66119"/><radialGradient id="e" cx="48" cy="90.171875" gradientTransform="matrix(1.1573129 0 0 .99590774 -7.551021 .197132)" gradientUnits="userSpaceOnUse" r="42" xlink:href="#a"/><clipPath id="f"><rect height="84" rx="6" width="84" x="6" y="6"/></clipPath><linearGradient id="g" gradientUnits="userSpaceOnUse" x1="48" x2="48" y1="90" y2="5.987717"><stop offset="0" stop-color="#ff4714"/><stop offset="1" stop-color="#ff6225"/></linearGradient><linearGradient id="h" gradientTransform="matrix(1.0058652 0 0 .994169 100 0)" gradientUnits="userSpaceOnUse" x1="45.447727" x2="45.447727" y1="92.539597" y2="7.01654"><stop offset="0"/><stop offset="1" stop-opacity=".588235"/></linearGradient><linearGradient id="i" gradientTransform="matrix(1.0238095 0 0 1.0119048 -1.142857 -98.071429)" gradientUnits="userSpaceOnUse" x1="32.251034" x2="32.251034" xlink:href="#h" y1="6.131708" y2="90.238609"/><linearGradient id="j" gradientTransform="translate(0 -97)" gradientUnits="userSpaceOnUse" x1="32.251034" x2="32.251034" xlink:href="#h" y1="6.131708" y2="90.238609"/><g fill="url(#i)"><path d="m12-95.03125c-5.5110903 0-10.03125 4.52016-10.03125 10.03125v71c0 5.5110902 4.5201598 10.03125 10.03125 10.03125h72c5.51109 0 10.03125-4.5201597 10.03125-10.03125v-71c0-5.51109-4.52016-10.03125-10.03125-10.03125z" opacity=".08" transform="scale(1 -1)"/><path d="m12-94.03125c-4.971633 0-9.03125 4.059617-9.03125 9.03125v71c0 4.9716329 4.0596171 9.03125 9.03125 9.03125h72c4.971633 0 9.03125-4.059617 9.03125-9.03125v-71c0-4.971633-4.059617-9.03125-9.03125-9.03125z" opacity=".1" transform="scale(1 -1)"/><path d="m12-93c-4.4091333 0-8 3.590867-8 8v71c0 4.4091333 3.5908667 8 8 8h72c4.409133 0 8-3.5908667 8-8v-71c0-4.409133-3.590867-8-8-8z" opacity=".2" transform="scale(1 -1)"/><rect height="85" opacity=".3" rx="7" transform="scale(1 -1)" width="86" x="5" y="-92"/></g><rect fill="url(#j)" height="84" opacity=".45" rx="6" transform="scale(1 -1)" width="84" x="6" y="-91"/><rect fill="url(#g)" height="84" rx="6" width="84" x="6" y="6"/><path d="m12 6c-3.324 0-6 2.676-6 6v2 68 2c0 .334721.04135.6507.09375.96875.0487.295596.09704.596915.1875.875.00988.03038.020892.0636.03125.09375.098865.287771.2348802.547452.375.8125.1445918.273507.3156161.535615.5.78125s.3737765.473472.59375.6875c.439947.428056.94291.814526 1.5 1.09375.278545.139612.5734731.246947.875.34375-.2562018-.100222-.4867109-.236272-.71875-.375-.00741-.0044-.023866.0045-.03125 0-.031933-.0193-.062293-.04251-.09375-.0625-.120395-.0767-.2310226-.163513-.34375-.25-.1061728-.0808-.2132809-.161112-.3125-.25-.1779299-.161433-.3474596-.345388-.5-.53125-.1075789-.130255-.2183939-.265285-.3125-.40625-.025089-.03838-.038446-.08587-.0625-.125-.064763-.103032-.1302275-.204517-.1875-.3125-.1010083-.194706-.2056748-.415701-.28125-.625-.00796-.02181-.023589-.04055-.03125-.0625-.0318251-.09195-.0358045-.186831-.0625-.28125-.0303323-.106618-.0703894-.203031-.09375-.3125-.0728786-.341512-.125-.698205-.125-1.0625v-2-68-2c0-2.781848 2.2181517-5 5-5h2 68 2c2.781848 0 5 2.218152 5 5v2 68 2c0 .364295-.05212.720988-.125 1.0625-.04415.206893-.08838.397658-.15625.59375-.0077.02195-.0233.04069-.03125.0625-.06274.173739-.138383.367449-.21875.53125-.04158.0828-.07904.169954-.125.25-.0546.09721-.126774.18835-.1875.28125-.09411.140965-.204921.275995-.3125.40625-.143174.17445-.303141.346998-.46875.5-.01117.0102-.01998.02115-.03125.03125-.138386.125556-.285091.234436-.4375.34375-.102571.07315-.204318.153364-.3125.21875-.0074.0045-.02384-.0044-.03125 0-.232039.138728-.462548.274778-.71875.375.301527-.0968.596455-.204138.875-.34375.55709-.279224 1.060053-.665694 1.5-1.09375.219973-.214028.409366-.441865.59375-.6875s.355408-.507743.5-.78125c.14012-.265048.276135-.524729.375-.8125.01041-.03078.02133-.06274.03125-.09375.09046-.278085.1388-.579404.1875-.875.0524-.31805.09375-.634029.09375-.96875v-2-68-2c0-3.324-2.676-6-6-6z" fill="url(#b)" opacity=".35"/><path d="m12 90c-3.324 0-6-2.676-6-6v-2-68-2c0-.334721.04135-.6507.09375-.96875.0487-.295596.09704-.596915.1875-.875.00988-.03038.020892-.0636.03125-.09375.098865-.287771.2348802-.547452.375-.8125.1445918-.273507.3156161-.535615.5-.78125s.3737765-.473472.59375-.6875c.439947-.428056.94291-.814526 1.5-1.09375.278545-.139612.5734731-.246947.875-.34375-.2562018.100222-.4867109.236272-.71875.375-.00741.0044-.023866-.0045-.03125 0-.031933.0193-.062293.04251-.09375.0625-.120395.0767-.2310226.163513-.34375.25-.1061728.0808-.2132809.161112-.3125.25-.1779299.161433-.3474596.345388-.5.53125-.1075789.130255-.2183939.265285-.3125.40625-.025089.03838-.038446.08587-.0625.125-.064763.103032-.1302275.204517-.1875.3125-.1010083.194706-.2056748.415701-.28125.625-.00796.02181-.023589.04055-.03125.0625-.0318251.09195-.0358045.186831-.0625.28125-.0303323.106618-.0703894.203031-.09375.3125-.0728786.341512-.125.698205-.125 1.0625v2 68 2c0 2.781848 2.2181517 5 5 5h2 68 2c2.781848 0 5-2.218152 5-5v-2-68-2c0-.364295-.05212-.720988-.125-1.0625-.04415-.206893-.08838-.397658-.15625-.59375-.0077-.02195-.0233-.04069-.03125-.0625-.06274-.173739-.138383-.367449-.21875-.53125-.04158-.0828-.07904-.169954-.125-.25-.0546-.09721-.126774-.18835-.1875-.28125-.09411-.140965-.204921-.275995-.3125-.40625-.143174-.17445-.303141-.346998-.46875-.5-.01117-.0102-.01998-.02115-.03125-.03125-.138386-.125556-.285091-.234436-.4375-.34375-.102571-.07315-.204318-.153364-.3125-.21875-.0074-.0045-.02384.0044-.03125 0-.232039-.138728-.462548-.274778-.71875-.375.301527.0968.596455.204138.875.34375.55709.279224 1.060053.665694 1.5 1.09375.219973.214028.409366.441865.59375.6875s.355408.507743.5.78125c.14012.265048.276135.524729.375.8125.01041.03078.02133.06274.03125.09375.09046.278085.1388.579404.1875.875.0524.31805.09375.634029.09375.96875v2 68 2c0 3.324-2.676 6-6 6z" fill="url(#e)" opacity=".2"/><path d="m36.544815 75.325698-17.671939-3.024591v-23.899584-23.899581l17.046384-2.886613c9.375513-1.587634 17.433447-2.963271 17.906524-3.056964l.860139-.170354v30.018839c0 16.510357-.105563 30.001871-.234584 29.981137-.129021-.02074-8.186956-1.398771-17.906524-3.062289zm-1.25111-19.848033v-3.555798l1.716136-.01542c4.20686-.03781 6.689937-3.281374 6.336307-8.276942-.177491-2.507364-1.149973-4.235548-2.832775-5.03409-1.160596-.550738-3.715677-.665656-7.050453-.317103l-1.922548.200946v10.094653c0 7.783062.08953 10.130776.390972 10.252414.215035.08677 1.059535.168874 1.876666.182451l1.485695.02469zm0-10.362801c0-2.602843.06789-2.977421.547361-3.020033 2.292119-.203702 3.205971.626501 3.205971 2.912513 0 1.960621-.960469 3.078909-2.644392 3.078909h-1.10894zm20.956106 20.022046v-1.724554h7.193886 7.193888v-1.563883-1.563891h-7.193888-7.193886v-1.094717-1.094726h7.193886 7.193888v-1.563891-1.563883h-7.193888-7.193886v-1.09746-1.097452l1.669157.196175c1.154318.135668 2.239647.03171 3.518749-.336971 3.04464-.877626 5.759313-4.179798 5.759313-7.00572 0-.647201-.123422-.667462-4.06611-.667462h-4.06611v-3.901901-3.901902l-1.016528.175636c-.55909.0966-1.192464.229413-1.407499.295141-.282526.08636-.390972-.399499-.390972-1.751616v-1.871124l10.243469.08246 10.243469.08247v16.26444 16.264436l-10.243469.08246-10.243469.08246zm11.760854-22.396581c-.552209-3.453313-3.270141-6.091655-6.834606-6.634462l-1.172916-.178615v4.046446 4.046445h4.106086 4.106087zm11.071913 3.176297v-13.782035h-11.416382-11.416385v-1.2547-1.2547l12.432913.08178 12.432911.08178v14.85694 14.856936l-1.016529.09802-1.016528.09801z" fill="#fefefe" stroke-width=".312778"/><rect height="66" rx="12" style="opacity:.1;stroke:#fefefe;stroke-width:.5;stroke-linecap:round;clip-path:url(#f);fill:url(#d);filter:url(#c)" width="66" x="15" y="15"/></svg>

<?xml version="1.0" encoding="UTF-8" standalone="no"?>
<svg
   xmlns:dc="http://purl.org/dc/elements/1.1/"
   xmlns:cc="http://creativecommons.org/ns#"
   xmlns:rdf="http://www.w3.org/1999/02/22-rdf-syntax-ns#"
   xmlns:svg="http://www.w3.org/2000/svg"
   xmlns="http://www.w3.org/2000/svg"
   xmlns:xlink="http://www.w3.org/1999/xlink"
   id="svg2408"
   height="96"
   width="96"
   version="1.0">
  <defs
     id="defs2410">
    <linearGradient
       id="linearGradient4564">
      <stop
         id="stop4560"
         offset="0"
         style="stop-color:#ffcfac;stop-opacity:1;" />
      <stop
         id="stop4562"
         offset="1"
         style="stop-color:#ffcfac;stop-opacity:0;" />
    </linearGradient>
    <linearGradient
       gradientTransform="scale(1.0058652,0.994169)"
       gradientUnits="userSpaceOnUse"
       id="ButtonShadow"
       y2="7.0165396"
       x2="45.447727"
       y1="92.539597"
       x1="45.447727">
      <stop
         offset="0"
         style="stop-color:#000000;stop-opacity:1"
         id="stop3750" />
      <stop
         offset="1"
         style="stop-color:#000000;stop-opacity:0.58823532"
         id="stop3752" />
    </linearGradient>
    <linearGradient
       id="linearGradient3737">
      <stop
         offset="0"
         style="stop-color:#fffac8;stop-opacity:1"
         id="stop3739" />
      <stop
         offset="1"
         style="stop-color:#feff67;stop-opacity:0"
         id="stop3741" />
    </linearGradient>
    <linearGradient
       id="linearGradient3700">
      <stop
         offset="0"
         style="stop-color:#ff4714;stop-opacity:1"
         id="stop3702" />
      <stop
         offset="1"
         style="stop-color:#ff6225;stop-opacity:1"
         id="stop3704" />
    </linearGradient>
    <filter
       id="filter3174"
       color-interpolation-filters="sRGB">
      <feGaussianBlur
         stdDeviation="1.71"
         id="feGaussianBlur3176" />
    </filter>
    <linearGradient
       gradientUnits="userSpaceOnUse"
       xlink:href="#linearGradient3737"
       id="linearGradient3188"
       y2="63.893143"
       x2="36.357143"
       y1="6"
       x1="36.357143" />
    <filter
       id="filter3794"
       color-interpolation-filters="sRGB"
       height="1.3839999"
       width="1.3839999"
       y="-0.192"
       x="-0.192">
      <feGaussianBlur
         stdDeviation="5.28"
         id="feGaussianBlur3796" />
    </filter>
    <linearGradient
       gradientUnits="userSpaceOnUse"
       xlink:href="#linearGradient3737"
       id="linearGradient3613"
       y2="138.66119"
       x2="48"
       y1="20.220806"
       x1="48" />
    <radialGradient
       gradientTransform="matrix(1.1573129,0,0,0.99590774,-7.5510206,0.19713193)"
       gradientUnits="userSpaceOnUse"
       xlink:href="#linearGradient3737"
       id="radialGradient3619"
       fy="90.171875"
       fx="48"
       r="42"
       cy="90.171875"
       cx="48" />
    <clipPath
       id="clipPath3613">
      <rect
         style="fill:#fefefe;fill-opacity:1;fill-rule:nonzero;stroke:none"
         id="rect3615"
         y="6"
         x="6"
         ry="6"
         rx="6"
         height="84"
         width="84" />
    </clipPath>
    <linearGradient
       gradientUnits="userSpaceOnUse"
       xlink:href="#linearGradient3700"
       id="linearGradient3617"
       y2="5.9877172"
       x2="48"
       y1="90"
       x1="48" />
    <linearGradient
       gradientTransform="matrix(1.0058652,0,0,0.994169,100,0)"
       gradientUnits="userSpaceOnUse"
       id="ButtonShadow-0"
       y2="7.0165396"
       x2="45.447727"
       y1="92.539597"
       x1="45.447727">
      <stop
         offset="0"
         style="stop-color:#000000;stop-opacity:1"
         id="stop3750-8" />
      <stop
         offset="1"
         style="stop-color:#000000;stop-opacity:0.58823532"
         id="stop3752-5" />
    </linearGradient>
    <linearGradient
       gradientTransform="matrix(1.0238095,0,0,1.0119048,-1.1428571,-98.071429)"
       gradientUnits="userSpaceOnUse"
       xlink:href="#ButtonShadow-0"
       id="linearGradient3780"
       y2="90.238609"
       x2="32.251034"
       y1="6.1317081"
       x1="32.251034" />
    <linearGradient
       gradientTransform="matrix(1.0238095,0,0,1.0119048,-1.1428571,-98.071429)"
       gradientUnits="userSpaceOnUse"
       xlink:href="#ButtonShadow-0"
       id="linearGradient3772"
       y2="90.238609"
       x2="32.251034"
       y1="6.1317081"
       x1="32.251034" />
    <linearGradient
       gradientTransform="matrix(1.0238095,0,0,1.0119048,-1.1428571,-98.071429)"
       gradientUnits="userSpaceOnUse"
       xlink:href="#ButtonShadow-0"
       id="linearGradient3725"
       y2="90.238609"
       x2="32.251034"
       y1="6.1317081"
       x1="32.251034" />
    <linearGradient
       gradientTransform="translate(0,-97)"
       gradientUnits="userSpaceOnUse"
       xlink:href="#ButtonShadow-0"
       id="linearGradient3721"
       y2="90.238609"
       x2="32.251034"
       y1="6.1317081"
       x1="32.251034" />
    <linearGradient
       gradientTransform="matrix(1.0238095,0,0,1.0119048,-1.1428571,-98.071429)"
       gradientUnits="userSpaceOnUse"
       xlink:href="#ButtonShadow-0"
       id="linearGradient3026"
       y2="90.238609"
       x2="32.251034"
       y1="6.1317081"
       x1="32.251034" />
    <linearGradient
       gradientTransform="rotate(-180,45.864403,53.779661)"
       gradientUnits="userSpaceOnUse"
       y2="58.576271"
       x2="53.52504"
       y1="58.576271"
       x1="38.525424"
       id="linearGradient4566"
       xlink:href="#linearGradient4564" />
  </defs>
  <metadata
     id="metadata2413">
    <rdf:RDF>
      <cc:Work
         rdf:about="">
        <dc:format>image/svg+xml</dc:format>
        <dc:type
           rdf:resource="http://purl.org/dc/dcmitype/StillImage" />
        <dc:title></dc:title>
      </cc:Work>
    </rdf:RDF>
  </metadata>
  <g
     style="display:none"
     id="layer2">
    <rect
       style="opacity:0.9;fill:url(#ButtonShadow);fill-opacity:1;fill-rule:nonzero;stroke:none;filter:url(#filter3174)"
       id="rect3745"
       y="7"
       x="5"
       ry="6"
       rx="6"
       height="85"
       width="86" />
  </g>
  <g
     id="layer3">
    <path
       style="opacity:0.07999998;fill:url(#linearGradient3026);fill-opacity:1;fill-rule:nonzero;stroke:none;display:inline"
       id="path3786"
       transform="scale(1,-1)"
       d="m 12,-95.03125 c -5.5110903,0 -10.03125,4.52016 -10.03125,10.03125 l 0,71 c 0,5.5110902 4.5201598,10.03125 10.03125,10.03125 l 72,0 c 5.51109,0 10.03125,-4.5201597 10.03125,-10.03125 l 0,-71 c 0,-5.51109 -4.52016,-10.03125 -10.03125,-10.03125 l -72,0 z" />
    <path
       style="opacity:0.1;fill:url(#linearGradient3780);fill-opacity:1;fill-rule:nonzero;stroke:none;display:inline"
       id="path3778"
       transform="scale(1,-1)"
       d="m 12,-94.03125 c -4.971633,0 -9.03125,4.059617 -9.03125,9.03125 l 0,71 c 0,4.9716329 4.0596171,9.03125 9.03125,9.03125 l 72,0 c 4.971633,0 9.03125,-4.059617 9.03125,-9.03125 l 0,-71 c 0,-4.971633 -4.059617,-9.03125 -9.03125,-9.03125 l -72,0 z" />
    <path
       style="opacity:0.2;fill:url(#linearGradient3772);fill-opacity:1;fill-rule:nonzero;stroke:none;display:inline"
       id="path3770"
       transform="scale(1,-1)"
       d="m 12,-93 c -4.4091333,0 -8,3.590867 -8,8 l 0,71 c 0,4.4091333 3.5908667,8 8,8 l 72,0 c 4.409133,0 8,-3.5908667 8,-8 l 0,-71 c 0,-4.409133 -3.590867,-8 -8,-8 l -72,0 z" />
    <rect
       style="opacity:0.3;fill:url(#linearGradient3725);fill-opacity:1;fill-rule:nonzero;stroke:none;display:inline"
       id="rect3723"
       transform="scale(1,-1)"
       y="-92"
       x="5"
       ry="7"
       rx="7"
       height="85"
       width="86" />
    <rect
       style="opacity:0.45;fill:url(#linearGradient3721);fill-opacity:1;fill-rule:nonzero;stroke:none;display:inline"
       id="rect3716"
       transform="scale(1,-1)"
       y="-91"
       x="6"
       ry="6"
       rx="6"
       height="84"
       width="84" />
  </g>
  <g
     id="layer1">
    <rect
       style="fill:url(#linearGradient3617);fill-opacity:1;fill-rule:nonzero;stroke:none"
       id="rect2419"
       y="6"
       x="6"
       ry="6"
       rx="6"
       height="84"
       width="84" />
    <path
       style="opacity:0.35;fill:url(#linearGradient3188);fill-opacity:1;fill-rule:nonzero;stroke:none"
       id="rect3728"
       d="M 12,6 C 8.676,6 6,8.676 6,12 l 0,2 0,68 0,2 c 0,0.334721 0.04135,0.6507 0.09375,0.96875 0.0487,0.295596 0.09704,0.596915 0.1875,0.875 0.00988,0.03038 0.020892,0.0636 0.03125,0.09375 0.098865,0.287771 0.2348802,0.547452 0.375,0.8125 0.1445918,0.273507 0.3156161,0.535615 0.5,0.78125 0.1843839,0.245635 0.3737765,0.473472 0.59375,0.6875 0.439947,0.428056 0.94291,0.814526 1.5,1.09375 0.278545,0.139612 0.5734731,0.246947 0.875,0.34375 -0.2562018,-0.100222 -0.4867109,-0.236272 -0.71875,-0.375 -0.00741,-0.0044 -0.023866,0.0045 -0.03125,0 -0.031933,-0.0193 -0.062293,-0.04251 -0.09375,-0.0625 -0.120395,-0.0767 -0.2310226,-0.163513 -0.34375,-0.25 -0.1061728,-0.0808 -0.2132809,-0.161112 -0.3125,-0.25 C 8.4783201,88.557317 8.3087904,88.373362 8.15625,88.1875 8.0486711,88.057245 7.9378561,87.922215 7.84375,87.78125 7.818661,87.74287 7.805304,87.69538 7.78125,87.65625 7.716487,87.553218 7.6510225,87.451733 7.59375,87.34375 7.4927417,87.149044 7.3880752,86.928049 7.3125,86.71875 7.30454,86.69694 7.288911,86.6782 7.28125,86.65625 7.2494249,86.5643 7.2454455,86.469419 7.21875,86.375 7.1884177,86.268382 7.1483606,86.171969 7.125,86.0625 7.0521214,85.720988 7,85.364295 7,85 L 7,83 7,15 7,13 C 7,10.218152 9.2181517,8 12,8 l 2,0 68,0 2,0 c 2.781848,0 5,2.218152 5,5 l 0,2 0,68 0,2 c 0,0.364295 -0.05212,0.720988 -0.125,1.0625 -0.04415,0.206893 -0.08838,0.397658 -0.15625,0.59375 -0.0077,0.02195 -0.0233,0.04069 -0.03125,0.0625 -0.06274,0.173739 -0.138383,0.367449 -0.21875,0.53125 -0.04158,0.0828 -0.07904,0.169954 -0.125,0.25 -0.0546,0.09721 -0.126774,0.18835 -0.1875,0.28125 -0.09411,0.140965 -0.204921,0.275995 -0.3125,0.40625 -0.143174,0.17445 -0.303141,0.346998 -0.46875,0.5 -0.01117,0.0102 -0.01998,0.02115 -0.03125,0.03125 -0.138386,0.125556 -0.285091,0.234436 -0.4375,0.34375 -0.102571,0.07315 -0.204318,0.153364 -0.3125,0.21875 -0.0074,0.0045 -0.02384,-0.0044 -0.03125,0 -0.232039,0.138728 -0.462548,0.274778 -0.71875,0.375 0.301527,-0.0968 0.596455,-0.204138 0.875,-0.34375 0.55709,-0.279224 1.060053,-0.665694 1.5,-1.09375 0.219973,-0.214028 0.409366,-0.441865 0.59375,-0.6875 0.184384,-0.245635 0.355408,-0.507743 0.5,-0.78125 0.14012,-0.265048 0.276135,-0.524729 0.375,-0.8125 0.01041,-0.03078 0.02133,-0.06274 0.03125,-0.09375 0.09046,-0.278085 0.1388,-0.579404 0.1875,-0.875 C 89.95865,84.6507 90,84.334721 90,84 l 0,-2 0,-68 0,-2 C 90,8.676 87.324,6 84,6 L 12,6 z" />
    <path
       style="opacity:0.2;fill:url(#radialGradient3619);fill-opacity:1;fill-rule:nonzero;stroke:none"
       id="path3615"
       d="M 12,90 C 8.676,90 6,87.324 6,84 L 6,82 6,14 6,12 c 0,-0.334721 0.04135,-0.6507 0.09375,-0.96875 0.0487,-0.295596 0.09704,-0.596915 0.1875,-0.875 C 6.29113,10.12587 6.302142,10.09265 6.3125,10.0625 6.411365,9.774729 6.5473802,9.515048 6.6875,9.25 6.8320918,8.976493 7.0031161,8.714385 7.1875,8.46875 7.3718839,8.223115 7.5612765,7.995278 7.78125,7.78125 8.221197,7.353194 8.72416,6.966724 9.28125,6.6875 9.559795,6.547888 9.8547231,6.440553 10.15625,6.34375 9.9000482,6.443972 9.6695391,6.580022 9.4375,6.71875 c -0.00741,0.0044 -0.023866,-0.0045 -0.03125,0 -0.031933,0.0193 -0.062293,0.04251 -0.09375,0.0625 -0.120395,0.0767 -0.2310226,0.163513 -0.34375,0.25 -0.1061728,0.0808 -0.2132809,0.161112 -0.3125,0.25 C 8.4783201,7.442683 8.3087904,7.626638 8.15625,7.8125 8.0486711,7.942755 7.9378561,8.077785 7.84375,8.21875 7.818661,8.25713 7.805304,8.30462 7.78125,8.34375 7.716487,8.446782 7.6510225,8.548267 7.59375,8.65625 7.4927417,8.850956 7.3880752,9.071951 7.3125,9.28125 7.30454,9.30306 7.288911,9.3218 7.28125,9.34375 7.2494249,9.4357 7.2454455,9.530581 7.21875,9.625 7.1884177,9.731618 7.1483606,9.828031 7.125,9.9375 7.0521214,10.279012 7,10.635705 7,11 l 0,2 0,68 0,2 c 0,2.781848 2.2181517,5 5,5 l 2,0 68,0 2,0 c 2.781848,0 5,-2.218152 5,-5 l 0,-2 0,-68 0,-2 C 89,10.635705 88.94788,10.279012 88.875,9.9375 88.83085,9.730607 88.78662,9.539842 88.71875,9.34375 88.71105,9.3218 88.69545,9.30306 88.6875,9.28125 88.62476,9.107511 88.549117,8.913801 88.46875,8.75 88.42717,8.6672 88.38971,8.580046 88.34375,8.5 88.28915,8.40279 88.216976,8.31165 88.15625,8.21875 88.06214,8.077785 87.951329,7.942755 87.84375,7.8125 87.700576,7.63805 87.540609,7.465502 87.375,7.3125 87.36383,7.3023 87.35502,7.29135 87.34375,7.28125 87.205364,7.155694 87.058659,7.046814 86.90625,6.9375 86.803679,6.86435 86.701932,6.784136 86.59375,6.71875 c -0.0074,-0.0045 -0.02384,0.0044 -0.03125,0 -0.232039,-0.138728 -0.462548,-0.274778 -0.71875,-0.375 0.301527,0.0968 0.596455,0.204138 0.875,0.34375 0.55709,0.279224 1.060053,0.665694 1.5,1.09375 0.219973,0.214028 0.409366,0.441865 0.59375,0.6875 0.184384,0.245635 0.355408,0.507743 0.5,0.78125 0.14012,0.265048 0.276135,0.524729 0.375,0.8125 0.01041,0.03078 0.02133,0.06274 0.03125,0.09375 0.09046,0.278085 0.1388,0.579404 0.1875,0.875 C 89.95865,11.3493 90,11.665279 90,12 l 0,2 0,68 0,2 c 0,3.324 -2.676,6 -6,6 l -72,0 z" />
    <path
       id="path4539"
       d="M 36.544815,75.325698 18.872876,72.301107 V 48.401523 24.501942 L 35.91926,21.615329 c 9.375513,-1.587634 17.433447,-2.963271 17.906524,-3.056964 l 0.860139,-0.170354 V 48.40685 c 0,16.510357 -0.105563,30.001871 -0.234584,29.981137 -0.129021,-0.02074 -8.186956,-1.398771 -17.906524,-3.062289 z m -1.25111,-19.848033 v -3.555798 l 1.716136,-0.01542 c 4.20686,-0.03781 6.689937,-3.281374 6.336307,-8.276942 -0.177491,-2.507364 -1.149973,-4.235548 -2.832775,-5.03409 -1.160596,-0.550738 -3.715677,-0.665656 -7.050453,-0.317103 l -1.922548,0.200946 v 10.094653 c 0,7.783062 0.08953,10.130776 0.390972,10.252414 0.215035,0.08677 1.059535,0.168874 1.876666,0.182451 l 1.485695,0.02469 z m 0,-10.362801 c 0,-2.602843 0.06789,-2.977421 0.547361,-3.020033 2.292119,-0.203702 3.205971,0.626501 3.205971,2.912513 0,1.960621 -0.960469,3.078909 -2.644392,3.078909 h -1.10894 z M 56.249811,65.13691 v -1.724554 h 7.193886 7.193888 v -1.563883 -1.563891 h -7.193888 -7.193886 v -1.094717 -1.094726 h 7.193886 7.193888 v -1.563891 -1.563883 h -7.193888 -7.193886 v -1.09746 -1.097452 l 1.669157,0.196175 c 1.154318,0.135668 2.239647,0.03171 3.518749,-0.336971 3.04464,-0.877626 5.759313,-4.179798 5.759313,-7.00572 0,-0.647201 -0.123422,-0.667462 -4.06611,-0.667462 h -4.06611 v -3.901901 -3.901902 l -1.016528,0.175636 c -0.55909,0.0966 -1.192464,0.229413 -1.407499,0.295141 -0.282526,0.08636 -0.390972,-0.399499 -0.390972,-1.751616 v -1.871124 l 10.243469,0.08246 10.243469,0.08247 v 16.26444 16.264436 l -10.243469,0.08246 -10.243469,0.08246 z M 68.010665,42.740329 c -0.552209,-3.453313 -3.270141,-6.091655 -6.834606,-6.634462 l -1.172916,-0.178615 v 4.046446 4.046445 h 4.106086 4.106087 z m 11.071913,3.176297 V 32.134591 H 67.666196 56.249811 v -1.2547 -1.2547 l 12.432913,0.08178 12.432911,0.08178 v 14.85694 14.856936 l -1.016529,0.09802 -1.016528,0.09801 z"
       style="fill:#fefefe;fill-opacity:1;stroke-width:0.3127777" />
  </g>
  <g
     style="display:inline"
     id="layer5">
    <rect
       style="opacity:0.1;fill:url(#linearGradient3613);fill-opacity:1;fill-rule:nonzero;stroke:#fefefe;stroke-width:0.5;stroke-linecap:round;stroke-linejoin:miter;stroke-miterlimit:4;stroke-dasharray:none;stroke-dashoffset:0;stroke-opacity:1;filter:url(#filter3794)"
       id="rect3171"
       clip-path="url(#clipPath3613)"
       y="15"
       x="15"
       ry="12"
       rx="12"
       height="66"
       width="66" />
  </g>
</svg>
